tools/download-figma-icons/icons/outlined-large/smart-lightning.svg

<svg width="64" height="64" viewBox="0 0 64 64" fill="none" xmlns="http://www.w3.org/2000/svg">
<path fill-rule="evenodd" clip-rule="evenodd" d="M30.7004 54L30.6904 51H18.2994V54H30.7004ZM21.0094 61H27.9904C29.4804 61 30.7004 59.76 30.7004 58.23V57H18.2994V58.23C18.2994 59.76 19.5094 61 21.0094 61ZM37.5804 8.52C34.0804 4.97 29.4404 3.01 24.5004 3C19.5594 3.01 14.9194 4.96 11.4294 8.51C7.92943 12.06 6.00943 16.78 6.00043 21.8C6.00043 28.73 9.15043 32.88 13.5894 37.99C16.1294 40.9 18.2994 43.41 18.2994 46.64V48H23.0004V26.18L20.0004 23.51L16.5004 26.62C15.8794 27.17 14.9294 27.11 14.3794 26.5C13.8304 25.88 13.8794 24.93 14.5004 24.38L19.0004 20.38C19.5704 19.87 20.4294 19.87 21.0004 20.38L24.5004 23.49L28.0004 20.38C28.5704 19.87 29.4294 19.87 30.0004 20.38L34.5004 24.38C35.1204 24.93 35.1694 25.88 34.6204 26.5C34.3304 26.83 33.9104 27 33.5004 27C33.1394 27 32.7904 26.88 32.5004 26.62L29.0004 23.51L26.0004 26.18V48H30.6904V46.64C30.6904 43.3928 32.9584 40.8063 35.3598 38.0678L35.4104 38.01C37.2504 35.9 38.8704 33.95 40.1204 31.9C40.5404 33 41.0304 34.07 41.5994 35.1C40.4504 36.74 39.1104 38.34 37.6694 39.99C35.1904 42.8 33.6904 44.65 33.6904 46.64V49.42C33.7004 49.44 33.7004 49.47 33.7004 49.5C33.7004 49.52 33.7004 49.55 33.6904 49.57L33.7004 55.48V55.5V55.52V58.23C33.7004 61.41 31.1394 64 27.9904 64H21.0094C17.8604 64 15.2994 61.41 15.2994 58.23V46.64C15.2994 44.5326 13.6435 42.6247 11.348 39.9798L11.3394 39.97C6.61043 34.54 3.00043 29.76 3.00043 21.8C3.00943 15.98 5.24043 10.52 9.29943 6.4C13.3494 2.28 18.7504 0.01 24.4904 0H24.5004C30.2504 0.01 35.6504 2.28 39.7104 6.41C40.7004 7.42 41.5704 8.5 42.3304 9.65C41.7194 10.64 41.1694 11.66 40.6904 12.72C39.8704 11.2 38.8204 9.79 37.5804 8.52ZM51.6 10.08C47.99 13.54 46 18.12 46 23C46 27.88 47.99 32.46 51.6 35.92C52.2 36.49 52.22 37.44 51.65 38.04C51.35 38.34 50.96 38.5 50.56 38.5C50.19 38.5 49.82 38.36 49.52 38.08C47.19 35.85 45.43 33.2 44.33 30.31C43.46 28.01 43 25.53 43 23C43 20.06 43.62 17.22 44.79 14.6C45.89 12.14 47.48 9.87 49.52 7.92C50.12 7.34 51.07 7.36 51.65 7.96C52.22 8.56 52.2 9.51 51.6 10.08ZM58.417 23C58.417 21.316 59.158 19.724 60.502 18.517C61.118 17.963 61.17 17.015 60.616 16.398C60.063 15.781 59.114 15.731 58.498 16.284C56.512 18.068 55.417 20.453 55.417 23C55.417 25.547 56.512 27.932 58.498 29.716C58.784 29.973 59.143 30.1 59.499 30.1C59.91 30.1 60.319 29.932 60.616 29.602C61.17 28.985 61.118 28.037 60.502 27.483C59.158 26.276 58.417 24.684 58.417 23ZM55.99 14.28C53.55 16.62 52.21 19.71 52.21 23C52.21 26.29 53.55 29.38 55.99 31.72C56.59 32.29 56.61 33.24 56.04 33.84C55.96 33.92 55.87 33.99 55.78 34.05C55.53 34.21 55.24 34.3 54.95 34.3C54.58 34.3 54.21 34.16 53.92 33.88C50.88 30.98 49.21 27.12 49.21 23C49.21 18.88 50.88 15.02 53.92 12.12C54.43 11.62 55.21 11.57 55.78 11.95C55.87 12.01 55.96 12.08 56.04 12.16C56.61 12.76 56.59 13.71 55.99 14.28Z" fill="black"/>
</svg>

<svg xmlns="http://www.w3.org/2000/svg" width="64" height="64" fill="none" viewBox="0 0 64 64"><path fill="currentColor" fill-rule="evenodd" d="m30.7 54-.01-3H18.3v3zm-9.69 7h6.98c1.49 0 2.71-1.24 2.71-2.77V57H18.3v1.23c0 1.53 1.21 2.77 2.71 2.77M37.58 8.52C34.08 4.97 29.44 3.01 24.5 3c-4.94.01-9.58 1.96-13.07 5.51C7.93 12.06 6.01 16.78 6 21.8c0 6.93 3.15 11.08 7.59 16.19 2.54 2.91 4.71 5.42 4.71 8.65V48H23V26.18l-3-2.67-3.5 3.11c-.62.55-1.57.49-2.12-.12-.55-.62-.5-1.57.12-2.12l4.5-4c.57-.51 1.43-.51 2 0l3.5 3.11 3.5-3.11c.57-.51 1.43-.51 2 0l4.5 4a1.502 1.502 0 0 1-2 2.24L29 23.51l-3 2.67V48h4.69v-1.36c0-3.247 2.268-5.834 4.67-8.572l.05-.058c1.84-2.11 3.46-4.06 4.71-6.11.42 1.1.91 2.17 1.48 3.2-1.15 1.64-2.49 3.24-3.93 4.89-2.48 2.81-3.98 4.66-3.98 6.65v2.78c.01.02.01.05.01.08 0 .02 0 .05-.01.07l.01 5.91v2.75c0 3.18-2.56 5.77-5.71 5.77h-6.98c-3.15 0-5.71-2.59-5.71-5.77V46.64c0-2.107-1.657-4.015-3.952-6.66l-.009-.01C6.61 34.54 3 29.76 3 21.8c.01-5.82 2.24-11.28 6.3-15.4C13.35 2.28 18.75.01 24.49 0h.01c5.75.01 11.15 2.28 15.21 6.41.99 1.01 1.86 2.09 2.62 3.24-.61.99-1.16 2.01-1.64 3.07a18.8 18.8 0 0 0-3.11-4.2m14.02 1.56C47.99 13.54 46 18.12 46 23s1.99 9.46 5.6 12.92c.6.57.62 1.52.05 2.12-.3.3-.69.46-1.09.46-.37 0-.74-.14-1.04-.42-2.33-2.23-4.09-4.88-5.19-7.77A20.7 20.7 0 0 1 43 23c0-2.94.62-5.78 1.79-8.4 1.1-2.46 2.69-4.73 4.73-6.68a1.5 1.5 0 1 1 2.08 2.16M58.417 23c0-1.684.741-3.276 2.085-4.483a1.5 1.5 0 0 0-2.004-2.233c-1.986 1.784-3.081 4.169-3.081 6.716s1.095 4.932 3.081 6.716a1.5 1.5 0 0 0 2.118-.114 1.5 1.5 0 0 0-.114-2.119c-1.344-1.207-2.085-2.799-2.085-4.483m-2.427-8.72c-2.44 2.34-3.78 5.43-3.78 8.72s1.34 6.38 3.78 8.72c.6.57.62 1.52.05 2.12a1.55 1.55 0 0 1-1.09.46c-.37 0-.74-.14-1.03-.42-3.04-2.9-4.71-6.76-4.71-10.88s1.67-7.98 4.71-10.88c.51-.5 1.29-.55 1.86-.17.09.06.18.13.26.21.57.6.55 1.55-.05 2.12" clip-rule="evenodd"/></svg>
